assets/svg/1F6AB.svg

<svg xmlns="http://www.w3.org/2000/svg" viewBox="0 0 64 64" enable-background="new 0 0 64 64"><path fill="#8b182c" d="m53.23 47.613c-12.312-12.308-24.625-24.622-36.939-36.936-5.481-5.481-11.09.129-5.608 5.61 12.313 12.314 24.626 24.626 36.935 36.937 5.483 5.484 11.09-.128 5.612-5.611"/><path fill="#be1e2d" d="m31.961 0c-17.618 0-31.953 14.335-31.953 31.953s14.335 31.953 31.953 31.953c17.617 0 31.952-14.335 31.952-31.953s-14.335-31.953-31.952-31.953m0 55.986c-13.253 0-24.03-10.78-24.03-24.03s10.781-24.04 24.03-24.04c13.254 0 24.03 10.783 24.03 24.04s-10.78 24.03-24.03 24.03"/><g fill="#8b182c"><path d="m4.703 31.953c0-16.825 13.08-30.622 29.603-31.833-.78-.057-1.559-.12-2.353-.12-17.618 0-31.953 14.335-31.953 31.953s14.335 31.953 31.953 31.953c.793 0 1.573-.062 2.353-.12-16.523-1.211-29.603-15.01-29.603-31.833"/><path d="m34.31 55.867c.773.076 1.558.119 2.351.119 13.252 0 24.03-10.78 24.03-24.03s-10.781-24.04-24.03-24.04c-.793 0-1.577.043-2.351.12 12.15 1.186 21.682 11.456 21.682 23.916 0 12.46-9.531 22.728-21.681 23.914"/></g></svg>

<?xml version="1.0" encoding="UTF-8" standalone="no"?>
<!-- Generator: Adobe Illustrator 16.0.0, SVG Export Plug-In . SVG Version: 6.00 Build 0)  -->

<svg
   xmlns:dc="http://purl.org/dc/elements/1.1/"
   xmlns:cc="http://creativecommons.org/ns#"
   xmlns:rdf="http://www.w3.org/1999/02/22-rdf-syntax-ns#"
   xmlns:svg="http://www.w3.org/2000/svg"
   xmlns="http://www.w3.org/2000/svg"
   xmlns:sodipodi="http://sodipodi.sourceforge.net/DTD/sodipodi-0.dtd"
   xmlns:inkscape="http://www.inkscape.org/namespaces/inkscape"
   version="1.1"
   id="Layer_1"
   x="0px"
   y="0px"
   width="64px"
   height="64px"
   viewBox="0 0 64 64"
   enable-background="new 0 0 64 64"
   xml:space="preserve"
   inkscape:version="0.48.5 r10040"
   sodipodi:docname="1F6AB.svg"
   inkscape:export-filename="D:\TESTINGEMOJI\SVGTEST\1F6AB.png"
   inkscape:export-xdpi="90"
   inkscape:export-ydpi="90"><metadata
   id="metadata6269"><rdf:RDF><cc:Work
       rdf:about=""><dc:format>image/svg+xml</dc:format><dc:type
         rdf:resource="http://purl.org/dc/dcmitype/StillImage" /><dc:title></dc:title></cc:Work></rdf:RDF></metadata><defs
   id="defs6267" /><sodipodi:namedview
   pagecolor="#ffffff"
   bordercolor="#666666"
   borderopacity="1"
   objecttolerance="10"
   gridtolerance="10"
   guidetolerance="10"
   inkscape:pageopacity="0"
   inkscape:pageshadow="2"
   inkscape:window-width="640"
   inkscape:window-height="480"
   id="namedview6265"
   showgrid="false"
   inkscape:zoom="3.6875"
   inkscape:cx="32"
   inkscape:cy="32"
   inkscape:window-x="783"
   inkscape:window-y="366"
   inkscape:window-maximized="0"
   inkscape:current-layer="Layer_1" />
<g
   id="g6253">
	<path
   fill="#8B182C"
   d="M53.234,47.613C40.922,35.305,28.609,22.991,16.295,10.677c-5.481-5.481-11.089,0.129-5.608,5.61   C23,28.601,35.313,40.913,47.622,53.224C53.105,58.708,58.713,53.096,53.234,47.613z"
   id="path6255" />
	<path
   fill="#BE1E2D"
   d="M31.961,0C14.343,0,0.008,14.335,0.008,31.953s14.335,31.953,31.953,31.953   c17.617,0,31.952-14.335,31.952-31.953S49.578,0,31.961,0z M31.961,55.986c-13.253,0-24.034-10.78-24.034-24.033   S18.708,7.917,31.961,7.917c13.254,0,24.034,10.783,24.034,24.036S45.215,55.986,31.961,55.986z"
   id="path6257" />
	<g
   id="g6259">
		<path
   fill="#8B182C"
   d="M4.703,31.953c0-16.825,13.08-30.622,29.603-31.833C33.526,0.063,32.747,0,31.953,0    C14.335,0,0,14.335,0,31.953s14.335,31.953,31.953,31.953c0.793,0,1.573-0.062,2.353-0.12    C17.783,62.575,4.703,48.778,4.703,31.953z"
   id="path6261" />
		<path
   fill="#8B182C"
   d="M34.306,55.867c0.773,0.076,1.558,0.119,2.351,0.119c13.252,0,24.032-10.78,24.032-24.033    S49.908,7.917,36.656,7.917c-0.793,0-1.577,0.043-2.351,0.12c12.15,1.186,21.682,11.456,21.682,23.916    C55.987,44.413,46.456,54.681,34.306,55.867z"
   id="path6263" />
	</g>
</g>
</svg>
